;FLAVOR:UltiGCode
;TIME:1573
;MATERIAL:4250
;MATERIAL2:0

;Layer count: 60
;LAYER:0
M106 S255
G0 F9000 X84.810 Y97.560 Z0.300
;TYPE:SKIRT
G1 F1200 X145.190 Y97.560 E6.88332
G1 X145.190 Y127.440 E10.28964
G1 X84.810 Y127.440 E17.17296
G1 X84.810 Y97.560 E20.57928
G10
G1 Z0.375
G0 F9000 X88.570 Y101.320
;TYPE:WALL-INNER
G1 Z0.300
G11
G1 F1200 X141.430 Y101.320 E26.60532
G1 X141.430 Y123.680 E29.15436
G1 X88.570 Y123.680 E35.18040
G1 X88.570 Y101.320 E37.72944
G0 F9000 X94.580 Y106.554
G1 F1200 X93.664 Y107.681 E37.89500
G1 X92.984 Y108.892 E38.05333
G1 X92.943 Y108.961 E38.06248
G1 X92.464 Y110.318 E38.22653
G1 X92.213 Y111.749 E38.39216
G1 X92.209 Y113.154 E38.55233
G1 X92.209 Y113.227 E38.56065
G1 X92.451 Y114.635 E38.72352
G1 X92.931 Y116.007 E38.88922
G1 X93.635 Y117.278 E39.05486
G1 X94.546 Y118.412 E39.22068
G1 X95.634 Y119.375 E39.38632
G1 X96.870 Y120.141 E39.55209
G1 X98.218 Y120.686 E39.71785
G1 X99.637 Y120.997 E39.88345
G1 X101.113 Y121.064 E40.05189
G1 X102.486 Y120.888 E40.20969
G1 X102.557 Y120.879 E40.21785
G1 X103.881 Y120.474 E40.37569
G1 X103.949 Y120.452 E40.38384
G1 X105.223 Y119.811 E40.54642
G1 X106.394 Y118.949 E40.71218
G1 X107.403 Y117.903 E40.87786
G1 X108.192 Y116.742 E41.03789
G1 X108.234 Y116.681 E41.04633
G1 X108.799 Y115.431 E41.20271
G1 X108.832 Y115.361 E41.21153
G1 X109.193 Y113.971 E41.37525
G1 X109.317 Y112.573 E41.53525
G1 X109.323 Y112.500 E41.54360
G1 X109.199 Y111.051 E41.70939
G1 X108.840 Y109.667 E41.87239
G1 X108.245 Y108.342 E42.03797
G1 X107.460 Y107.174 E42.19840
G1 X107.419 Y107.114 E42.20668
G1 X106.464 Y106.118 E42.36399
G1 X106.416 Y106.067 E42.37197
G1 X105.265 Y105.215 E42.53522
G1 X103.969 Y104.558 E42.70087
G1 X102.626 Y104.142 E42.86115
G1 X102.560 Y104.121 E42.86904
G1 X101.187 Y103.946 E43.02683
G1 X101.115 Y103.936 E43.03512
G1 X99.661 Y103.998 E43.20102
G1 X98.264 Y104.299 E43.36394
G1 X96.914 Y104.836 E43.52956
G1 X95.720 Y105.568 E43.68922
G1 X95.655 Y105.607 E43.69787
G1 X94.580 Y106.554 E43.86119
G0 F9000 X96.910 Y104.829
G0 X99.661 Y103.989
G0 X102.630 Y104.134
G0 X105.269 Y105.208
G0 X107.467 Y107.170
G0 X120.712 Y111.749
G1 F1200 X120.708 Y113.154 E44.02136
G1 X120.708 Y113.227 E44.02968
G1 X120.950 Y114.635 E44.19254
G1 X121.430 Y116.007 E44.35825
G1 X122.134 Y117.278 E44.52388
G1 X123.045 Y118.412 E44.68971
G1 X124.133 Y119.375 E44.85535
G1 X125.369 Y120.141 E45.02112
G1 X126.717 Y120.686 E45.18687
G1 X128.136 Y120.997 E45.35248
G1 X129.612 Y121.064 E45.52092
G1 X130.985 Y120.888 E45.67872
G1 X131.056 Y120.879 E45.68688
G1 X132.380 Y120.474 E45.84472
G1 X132.448 Y120.452 E45.85286
G1 X133.722 Y119.811 E46.01545
G1 X134.893 Y118.949 E46.18121
G1 X135.902 Y117.903 E46.34689
G1 X136.691 Y116.742 E46.50692
G1 X136.733 Y116.681 E46.51536
G1 X137.298 Y115.431 E46.67174
G1 X137.331 Y115.361 E46.68056
G1 X137.692 Y113.971 E46.84428
G1 X137.816 Y112.573 E47.00428
G1 X137.822 Y112.500 E47.01263
G1 X137.698 Y111.051 E47.17842
G1 X137.339 Y109.667 E47.34141
G1 X136.744 Y108.342 E47.50699
G1 X135.959 Y107.174 E47.66742
G1 X135.918 Y107.114 E47.67571
G1 X134.963 Y106.118 E47.83301
G1 X134.915 Y106.067 E47.84100
G1 X133.764 Y105.215 E48.00425
G1 X132.468 Y104.558 E48.16989
G1 X131.125 Y104.142 E48.33017
G1 X131.059 Y104.121 E48.33807
G1 X129.686 Y103.946 E48.49586
G1 X129.614 Y103.936 E48.50414
G1 X128.160 Y103.998 E48.67005
G1 X126.763 Y104.299 E48.83296
G1 X125.413 Y104.836 E48.99859
G1 X124.219 Y105.568 E49.15825
G1 X124.154 Y105.607 E49.16689
G1 X123.079 Y106.554 E49.33021
G1 X122.163 Y107.681 E49.49577
G1 X121.483 Y108.892 E49.65410
G1 X121.442 Y108.961 E49.66325
G1 X120.963 Y110.318 E49.82731
G1 X120.712 Y111.749 E49.99293
G0 F9000 X121.092 Y111.782
;TYPE:WALL-OUTER
G1 F1200 X121.088 Y113.194 E50.15390
G1 X121.319 Y114.540 E50.30959
G1 X121.778 Y115.851 E50.46794
G1 X122.451 Y117.065 E50.62618
G1 X123.321 Y118.149 E50.78463
G1 X124.361 Y119.069 E50.94292
G1 X125.542 Y119.801 E51.10132
G1 X126.830 Y120.322 E51.25971
G1 X128.185 Y120.619 E51.41785
G1 X129.597 Y120.683 E51.57898
G1 X130.975 Y120.506 E51.73736
G1 X132.267 Y120.111 E51.89138
G1 X133.523 Y119.486 E52.05131
G1 X134.642 Y118.662 E52.20973
G1 X135.606 Y117.662 E52.36808
G1 X136.400 Y116.494 E52.52908
G1 X136.954 Y115.268 E52.68245
G1 X136.972 Y115.230 E52.68725
G1 X137.316 Y113.906 E52.84319
G1 X137.441 Y112.500 E53.00411
G1 X137.322 Y111.116 E53.16247
G1 X136.979 Y109.794 E53.31817
G1 X136.411 Y108.527 E53.47645
G1 X135.644 Y107.387 E53.63309
G1 X134.688 Y106.381 E53.79130
G1 X133.563 Y105.540 E53.95142
G1 X132.325 Y104.911 E54.10973
G1 X131.013 Y104.505 E54.26629
G1 X129.597 Y104.317 E54.42913
G1 X128.209 Y104.376 E54.58751
G1 X126.874 Y104.664 E54.74320
G1 X125.584 Y105.177 E54.90146
G1 X124.414 Y105.894 E55.05789
G1 X123.354 Y106.818 E55.21820
G1 X122.478 Y107.896 E55.37655
G1 X121.809 Y109.087 E55.53228
G1 X121.787 Y109.124 E55.53719
G1 X121.332 Y110.415 E55.69323
G1 X121.092 Y111.782 E55.85146
G0 F9000 X120.807 Y111.732
G0 X109.229 Y112.524
G0 X108.942 Y112.500
G1 F1200 X108.823 Y111.116 E56.00981
G1 X108.480 Y109.794 E56.16551
G1 X107.912 Y108.527 E56.32380
G1 X107.145 Y107.387 E56.48044
G1 X106.189 Y106.381 E56.63865
G1 X105.064 Y105.540 E56.79877
G1 X103.826 Y104.911 E56.95707
G1 X102.514 Y104.505 E57.11364
G1 X101.098 Y104.317 E57.27648
G1 X99.710 Y104.376 E57.43485
G1 X98.375 Y104.664 E57.59055
G1 X97.085 Y105.177 E57.74881
G1 X95.915 Y105.894 E57.90524
G1 X94.855 Y106.818 E58.06555
G1 X93.979 Y107.896 E58.22390
G1 X93.310 Y109.087 E58.37963
G1 X93.288 Y109.124 E58.38453
G1 X92.833 Y110.415 E58.54058
G1 X92.593 Y111.782 E58.69880
G1 X92.589 Y113.194 E58.85977
G1 X92.820 Y114.540 E59.01546
G1 X93.279 Y115.851 E59.17381
G1 X93.952 Y117.065 E59.33205
G1 X94.822 Y118.149 E59.49050
G1 X95.862 Y119.069 E59.64879
G1 X97.043 Y119.801 E59.80719
G1 X98.331 Y120.322 E59.96558
G1 X99.686 Y120.619 E60.12372
G1 X101.098 Y120.683 E60.28485
G1 X102.476 Y120.506 E60.44323
G1 X103.768 Y120.111 E60.59725
G1 X105.024 Y119.486 E60.75718
G1 X106.143 Y118.662 E60.91560
G1 X107.107 Y117.662 E61.07395
G1 X107.901 Y116.494 E61.23495
G1 X108.455 Y115.268 E61.38832
G1 X108.473 Y115.230 E61.39312
G1 X108.817 Y113.906 E61.54906
G1 X108.942 Y112.500 E61.70998
G0 F9000 X109.229 Y112.524
G0 X108.807 Y115.434
G0 X107.410 Y117.908
G0 X105.227 Y119.818
G0 X102.487 Y120.898
G0 X99.636 Y121.006
G0 X96.866 Y120.149
G0 X88.390 Y123.770
G0 X88.190 Y124.060
G1 F1200 X88.190 Y100.940 E64.34566
G1 X141.810 Y100.940 E70.45834
G1 X141.810 Y124.060 E73.09402
G1 X88.190 Y124.060 E79.20670
G0 F9000 X88.884 Y123.546
;TYPE:SKIN
G1 F1200 X88.703 Y123.365 E79.23588
G0 F9000 X88.703 Y122.827
G1 F1200 X89.421 Y123.546 E79.35172
G0 F9000 X89.958 Y123.546
G1 F1200 X88.703 Y122.290 E79.55413
G0 F9000 X88.703 Y121.753
G1 F1200 X90.496 Y123.546 E79.84320
G0 F9000 X91.033 Y123.546
G1 F1200 X88.703 Y121.215 E80.21892
G0 F9000 X88.703 Y120.678
G1 F1200 X91.571 Y123.546 E80.68130
G0 F9000 X92.108 Y123.546
G1 F1200 X88.703 Y120.140 E81.23034
G0 F9000 X88.703 Y119.603
G1 F1200 X92.645 Y123.546 E81.86595
G0 F9000 X93.183 Y123.546
G1 F1200 X88.703 Y119.066 E82.58822
G0 F9000 X88.703 Y118.528
G1 F1200 X93.720 Y123.546 E83.39714
G0 F9000 X94.258 Y123.546
G1 F1200 X88.703 Y117.991 E84.29272
G0 F9000 X88.703 Y117.453
G1 F1200 X94.795 Y123.546 E85.27495
G0 F9000 X95.332 Y123.546
G1 F1200 X88.703 Y116.916 E86.34376
G0 F9000 X88.703 Y116.379
G1 F1200 X95.870 Y123.546 E87.49923
G0 F9000 X96.407 Y123.546
G1 F1200 X88.703 Y115.841 E88.74135
G0 F9000 X88.703 Y115.304
G1 F1200 X96.945 Y123.546 E90.07013
G0 F9000 X97.482 Y123.546
G1 F1200 X88.703 Y114.766 E91.48556
G0 F9000 X88.703 Y114.229
G1 F1200 X98.019 Y123.546 E92.98757
G0 F9000 X98.557 Y123.546
G1 F1200 X88.703 Y113.692 E94.57624
G0 F9000 X88.703 Y113.154
G1 F1200 X99.094 Y123.546 E96.25156
G0 F9000 X99.632 Y123.546
G1 F1200 X95.588 Y119.503 E96.90345
G10
G1 Z0.375
G0 F9000 X93.881 Y117.795
G1 Z0.300
G11
G1 F1200 X88.703 Y112.617 E97.73825
G0 F9000 X88.703 Y112.079
G1 F1200 X92.966 Y116.343 E98.42562
G0 F9000 X92.587 Y115.427
G1 F1200 X88.703 Y111.542 E99.05188
G0 F9000 X88.703 Y111.005
G1 F1200 X92.312 Y114.614 E99.63372
G0 F9000 X92.201 Y113.965
G1 F1200 X88.703 Y110.467 E100.19767
G0 F9000 X88.703 Y109.930
G1 F1200 X92.090 Y113.317 E100.74372
G0 F9000 X92.077 Y112.767
G1 F1200 X88.703 Y109.392 E101.28776
G0 F9000 X88.703 Y108.855
G1 F1200 X92.079 Y112.231 E101.83204
G0 F9000 X92.086 Y111.701
G1 F1200 X88.703 Y108.318 E102.37745
G0 F9000 X88.703 Y107.780
G1 F1200 X92.166 Y111.244 E102.93584
G0 F9000 X92.247 Y110.787
G1 F1200 X88.703 Y107.243 E103.50720
G0 F9000 X88.703 Y106.705
G1 F1200 X92.326 Y110.329 E104.09138
G0 F9000 X92.461 Y109.927
G1 F1200 X88.703 Y106.168 E104.69733
G0 F9000 X88.703 Y105.631
G1 F1200 X92.601 Y109.530 E105.32585
G0 F9000 X92.742 Y109.132
G1 F1200 X88.703 Y105.093 E105.97702
G0 F9000 X88.703 Y104.556
G1 F1200 X92.905 Y108.758 E106.65446
G0 F9000 X93.099 Y108.415
G1 F1200 X88.703 Y104.018 E107.36327
G0 F9000 X88.703 Y103.481
G1 F1200 X93.292 Y108.070 E108.10311
G0 F9000 X93.485 Y107.727
G1 F1200 X88.703 Y102.944 E108.87415
G0 F9000 X88.703 Y102.406
G1 F1200 X93.709 Y107.413 E109.68130
G0 F9000 X93.950 Y107.116
G1 F1200 X88.703 Y101.869 E110.52722
G0 F9000 X88.823 Y101.452
G1 F1200 X94.191 Y106.820 E111.39265
G0 F9000 X94.432 Y106.524
G1 F1200 X89.361 Y101.452 E112.21028
G0 F9000 X89.898 Y101.452
G1 F1200 X94.709 Y106.263 E112.98591
G0 F9000 X94.994 Y106.011
G1 F1200 X90.436 Y101.452 E113.72083
G0 F9000 X90.973 Y101.452
G1 F1200 X95.280 Y105.759 E114.41521
G0 F9000 X95.566 Y105.508
G1 F1200 X91.510 Y101.452 E115.06912
G0 F9000 X92.048 Y101.452
G1 F1200 X95.897 Y105.301 E115.68966
G0 F9000 X96.230 Y105.097
G1 F1200 X92.585 Y101.452 E116.27730
G0 F9000 X93.123 Y101.452
G1 F1200 X96.563 Y104.892 E116.83190
G0 F9000 X96.902 Y104.694
G1 F1200 X93.660 Y101.452 E117.35458
G0 F9000 X94.197 Y101.452
G1 F1200 X97.287 Y104.542 E117.85275
G0 F9000 X97.671 Y104.389
G1 F1200 X94.735 Y101.452 E118.32617
G0 F9000 X95.272 Y101.452
G1 F1200 X98.056 Y104.236 E118.77501
G0 F9000 X98.473 Y104.116
G1 F1200 X95.810 Y101.452 E119.20442
G0 F9000 X96.347 Y101.452
G1 F1200 X98.915 Y104.021 E119.61852
G0 F9000 X99.358 Y103.926
G1 F1200 X96.884 Y101.452 E120.01737
G0 F9000 X97.422 Y101.452
G1 F1200 X99.826 Y103.857 E120.40503
G0 F9000 X100.341 Y103.834
G1 F1200 X97.959 Y101.452 E120.78906
G0 F9000 X98.497 Y101.452
G1 F1200 X100.856 Y103.812 E121.16945
G0 F9000 X101.422 Y103.840
G1 F1200 X99.034 Y101.452 E121.55445
G0 F9000 X99.571 Y101.452
G1 F1200 X102.039 Y103.919 E121.95226
G0 F9000 X102.674 Y104.017
G1 F1200 X100.109 Y101.452 E122.36579
G0 F9000 X100.646 Y101.452
G1 F1200 X103.451 Y104.257 E122.81801
G0 F9000 X104.315 Y104.583
G1 F1200 X101.184 Y101.452 E123.32279
G0 F9000 X101.721 Y101.452
G1 F1200 X105.474 Y105.205 E123.92785
G10
G1 Z0.375
G0 F9000 X107.981 Y107.712
G1 Z0.300
G11
G1 F1200 X123.815 Y123.546 E126.48062
G0 F9000 X124.352 Y123.546
G1 F1200 X102.258 Y101.452 E130.04262
G0 F9000 X102.796 Y101.452
G1 F1200 X124.889 Y123.546 E133.60454
G0 F9000 X125.427 Y123.546
G1 F1200 X103.333 Y101.452 E137.16654
G0 F9000 X103.871 Y101.452
G1 F1200 X125.964 Y123.546 E140.72847
G0 F9000 X126.502 Y123.546
G1 F1200 X104.408 Y101.452 E144.29047
G0 F9000 X104.945 Y101.452
G1 F1200 X127.039 Y123.546 E147.85247
G0 F9000 X127.576 Y123.546
G1 F1200 X105.483 Y101.452 E151.41439
G0 F9000 X106.020 Y101.452
G1 F1200 X122.438 Y117.870 E154.06131
G10
G1 Z0.375
G0 F9000 X121.483 Y116.378
G1 Z0.300
G11
G1 F1200 X106.558 Y101.452 E156.46760
G0 F9000 X107.095 Y101.452
G1 F1200 X121.094 Y115.452 E158.72461
G0 F9000 X120.813 Y114.633
G1 F1200 X107.632 Y101.452 E160.84965
G0 F9000 X108.170 Y101.452
G1 F1200 X120.702 Y113.984 E162.87006
G0 F9000 X120.591 Y113.336
G1 F1200 X108.707 Y101.452 E164.78601
G0 F9000 X109.245 Y101.452
G1 F1200 X120.575 Y112.783 E166.61271
G0 F9000 X120.577 Y112.247
G1 F1200 X109.782 Y101.452 E168.35309
G0 F9000 X110.319 Y101.452
G1 F1200 X120.582 Y111.715 E170.00769
G0 F9000 X120.662 Y111.257
G1 F1200 X110.857 Y101.452 E171.58846
G0 F9000 X111.394 Y101.452
G1 F1200 X120.742 Y110.800 E173.09555
G0 F9000 X120.822 Y110.343
G1 F1200 X111.932 Y101.452 E174.52888
G0 F9000 X112.469 Y101.452
G1 F1200 X120.955 Y109.938 E175.89699
G0 F9000 X121.096 Y109.542
G1 F1200 X113.006 Y101.452 E177.20126
G0 F9000 X113.544 Y101.452
G1 F1200 X121.236 Y109.144 E178.44137
G0 F9000 X121.398 Y108.769
G1 F1200 X114.081 Y101.452 E179.62102
G0 F9000 X114.619 Y101.452
G1 F1200 X121.591 Y108.425 E180.74513
G0 F9000 X121.785 Y108.081
G1 F1200 X115.157 Y101.453 E181.81370
G0 F9000 X115.694 Y101.453
G1 F1200 X121.978 Y107.737 E182.82681
G0 F9000 X122.201 Y107.422
G1 F1200 X116.232 Y101.453 E183.78913
G0 F9000 X116.769 Y101.453
G1 F1200 X122.442 Y107.126 E184.70373
G0 F9000 X122.683 Y106.829
G1 F1200 X117.306 Y101.453 E185.57053
G0 F9000 X117.844 Y101.453
G1 F1200 X122.924 Y106.533 E186.38953
G0 F9000 X123.199 Y106.271
G1 F1200 X118.381 Y101.453 E187.16629
G0 F9000 X118.919 Y101.453
G1 F1200 X123.484 Y106.019 E187.90234
G0 F9000 X123.770 Y105.767
G1 F1200 X119.456 Y101.453 E188.59785
G0 F9000 X119.993 Y101.453
G1 F1200 X124.056 Y105.515 E189.25281
G0 F9000 X124.386 Y105.308
G1 F1200 X120.531 Y101.453 E189.87431
G0 F9000 X121.068 Y101.453
G1 F1200 X124.719 Y105.104 E190.46293
G0 F9000 X125.052 Y104.899
G1 F1200 X121.606 Y101.453 E191.01849
G0 F9000 X122.143 Y101.453
G1 F1200 X125.390 Y104.700 E191.54197
G0 F9000 X125.774 Y104.547
G1 F1200 X122.680 Y101.453 E192.04079
G0 F9000 X123.218 Y101.453
G1 F1200 X126.159 Y104.394 E192.51494
G0 F9000 X126.543 Y104.241
G1 F1200 X123.755 Y101.453 E192.96442
G0 F9000 X124.293 Y101.453
G1 F1200 X126.959 Y104.120 E193.39432
G0 F9000 X127.402 Y104.025
G1 F1200 X124.830 Y101.453 E193.80897
G0 F9000 X125.367 Y101.453
G1 F1200 X127.844 Y103.929 E194.20824
G0 F9000 X128.310 Y103.858
G1 F1200 X125.905 Y101.453 E194.59597
G0 F9000 X126.442 Y101.453
G1 F1200 X128.825 Y103.836 E194.98016
G0 F9000 X129.340 Y103.813
G1 F1200 X126.980 Y101.453 E195.36064
G0 F9000 X127.517 Y101.453
G1 F1200 X129.904 Y103.840 E195.74547
G0 F9000 X130.519 Y103.918
G1 F1200 X128.054 Y101.453 E196.14288
G0 F9000 X128.592 Y101.453
G1 F1200 X131.149 Y104.011 E196.55520
G0 F9000 X131.927 Y104.251
G1 F1200 X129.129 Y101.453 E197.00630
G0 F9000 X129.667 Y101.453
G1 F1200 X132.783 Y104.569 E197.50866
G0 F9000 X133.909 Y105.158
G1 F1200 X130.204 Y101.453 E198.10598
G0 F9000 X130.741 Y101.453
G1 F1200 X141.296 Y112.007 E199.80758
G0 F9000 X141.296 Y111.470
G1 F1200 X131.279 Y101.453 E201.42252
G0 F9000 X131.816 Y101.453
G1 F1200 X141.296 Y110.933 E202.95089
G0 F9000 X141.296 Y110.395
G1 F1200 X132.354 Y101.453 E204.39253
G0 F9000 X132.891 Y101.453
G1 F1200 X141.296 Y109.858 E205.74758
G0 F9000 X141.296 Y109.320
G1 F1200 X133.428 Y101.453 E207.01598
G0 F9000 X133.966 Y101.453
G1 F1200 X141.296 Y108.783 E208.19773
G0 F9000 X141.296 Y108.246
G1 F1200 X134.503 Y101.453 E209.29290
G0 F9000 X135.041 Y101.453
G1 F1200 X141.296 Y107.708 E210.30133
G0 F9000 X141.296 Y107.171
G1 F1200 X135.578 Y101.453 E211.22319
G0 F9000 X136.115 Y101.453
G1 F1200 X141.296 Y106.633 E212.05839
G0 F9000 X141.296 Y106.096
G1 F1200 X136.653 Y101.453 E212.80694
G0 F9000 X137.190 Y101.453
G1 F1200 X141.296 Y105.559 E213.46891
G0 F9000 X141.296 Y105.021
G1 F1200 X137.728 Y101.453 E214.04414
G0 F9000 X138.265 Y101.453
G1 F1200 X141.296 Y104.484 E214.53280
G0 F9000 X141.296 Y103.946
G1 F1200 X138.802 Y101.453 E214.93481
G0 F9000 X139.340 Y101.453
G1 F1200 X141.296 Y103.409 E215.25015
G0 F9000 X141.296 Y102.872
G1 F1200 X139.877 Y101.453 E215.47892
G10
